svgs/thin/game-console-handheld.svg

<svg xmlns="http://www.w3.org/2000/svg" viewBox="0 0 384 512"><!-- Font Awesome Pro 6.0.0-alpha2 by @fontawesome - https://fontawesome.com License - https://fontawesome.com/license (Commercial License) --><path d="M304 272C286.355 272 272 286.355 272 304S286.355 336 304 336S336 321.645 336 304S321.645 272 304 272ZM304 320C295.166 320 288 312.832 288 304S295.166 288 304 288S320 295.168 320 304S312.834 320 304 320ZM336 0H48C21.6 0 0 21.602 0 48V464C0 490.398 21.6 512 48 512H288C341.02 512 384 469.02 384 416V48C384 21.602 362.4 0 336 0ZM368 416C368 460.113 332.111 496 288 496H48C30.355 496 16 481.645 16 464V48C16 30.355 30.355 16 48 16H336C353.645 16 368 30.355 368 48V416ZM240 336C222.355 336 208 350.355 208 368S222.355 400 240 400S272 385.645 272 368S257.645 336 240 336ZM240 384C231.166 384 224 376.832 224 368S231.166 352 240 352S256 359.168 256 368S248.834 384 240 384ZM96 240H256C282.4 240 304 218.398 304 192V80C304 71.164 296.836 64 288 64H96C87.164 64 80 71.164 80 80V224C80 232.836 87.164 240 96 240ZM96 80H288V192C288 209.645 273.645 224 256 224H96V80ZM152 328H120V296C120 291.594 116.406 288 112 288S104 291.594 104 296V328H72C67.594 328 64 331.594 64 336S67.594 344 72 344H104V376C104 380.406 107.594 384 112 384S120 380.406 120 376V344H152C156.406 344 160 340.406 160 336S156.406 328 152 328Z"/></svg>

<svg xmlns="http://www.w3.org/2000/svg" viewBox="0 0 384 512"><!--! Font Awesome Pro 6.3.0 by @fontawesome - https://fontawesome.com License - https://fontawesome.com/license (Commercial License) Copyright 2023 Fonticons, Inc. --><path d="M304 272c-17.64 0-32 14.36-32 32s14.36 32 32 32s32-14.36 32-32S321.6 272 304 272zM304 320c-8.834 0-16-7.168-16-16s7.166-16 16-16s16 7.168 16 16S312.8 320 304 320zM336 0h-288c-26.4 0-48 21.6-48 48L.0001 416c0 52.8 43.2 96 96 96h192c53.02 0 96-42.98 96-96l.0001-368C384 21.6 362.4 0 336 0zM368 416c0 44.18-35.82 80-80 80h-192c-44.18 0-80-35.82-80-80V48c0-17.67 14.33-32 32-32h288c17.67 0 32 14.33 32 32V416zM240 336c-17.64 0-32 14.36-32 32s14.36 32 32 32s32-14.36 32-32S257.6 336 240 336zM240 384c-8.834 0-16-7.168-16-16s7.166-16 16-16s16 7.168 16 16S248.8 384 240 384zM128 240h127.1c26.4 0 48-21.6 48-48V80c0-8.837-7.163-16-16-16h-192c-8.837 0-16 7.163-16 16V192C80 218.5 101.5 240 128 240zM96 80l192 0V192c0 17.67-14.33 32-32 32h-128c-17.67 0-32-14.33-32-32L96 80zM152 328h-32v-32c0-4.406-3.594-8-8-8S104 291.6 104 296v32h-32c-4.406 0-8 3.594-8 8s3.594 8 8 8h32v32c0 4.406 3.594 8 7.1 8s8-3.594 8-8v-32h32c4.406 0 7.1-3.594 7.1-8S156.4 328 152 328z"/></svg>
